X:1
T:Title
%%score { ( 1 3 ) | ( 2 4 ) }
L:1/8
Q:1/4=100
M:4/4
K:C
V:1 treble nm="Grand Piano"
V:3 treble 
V:2 bass 
V:4 bass 
V:1
 [EG]2 [EA]2 [EB]2 [Ec]2 | E>_E =E>_E =E>A G>C | z2 D2 DB A>B | A4 z4 | [EG]2 [EA]2 [EB]2 [Ec]2 | %5
w: J.~Lincoln~Hall * * *|||||
 E>_E =E>_E =E>G A>_B | B6 z2 | [C^FA]4 [B,DG]4 | [EFG]2 [EFG]2 [EFG]2 [EFG]2 | %9
w: ||||
 [_E^F]2 F2 [=EG]2 G2 | [EFG]2 [EFG]2 [EFG]2 [EFG]2 | [CEG]2 [EG]2 [EG]2 z2 | %12
w: |||
 [G,EG]2 [EA]2 [EB]2 [Ec]2 | [Ed]>[_B,Ec] [Ed]>[Ec] d>c B>A | G4 d4 | [Ec]6 z2 | [Ec]4 [EB]4 | %17
w: |||||
 [EA]>[EB] [EA]>[EB] [EA]4 | [EG]2 C2 D2 E2 | G4 [B,F]4 | B4 A4 | G>A G>A G4 | e2 d2 A2 B2 | %23
w: ||||||
 [_EA]4 [=EG]4 | [Ec]4 [EB]4 | [EA]>[EB] [EA]>[EB] [EA]4 | [Ed]2 [Ec]2 [EG]2 [E^G]2 | [FA]4 [GA]4 | %28
w: |||||
 [^Fe]2 [Fd]2 [Fc]2 [FA]2 | c2 G2 ^F2 G2 | [^FA]4 [=Fe]4 |[M:3/4] [Ec]6 |] %32
w: ||||
V:2
 [C,G,]2 [G,,G,]2 [C,G,]2 [G,,G,]2 | [C,G,C]>[C,^F,C] [C,G,C]>[C,F,C] [C,G,C]2 z2 | %2
 z2 [G,B,]2 .[G,B,]2 z2 | _E4 z4 | [C,G,]2 [G,,G,]2 [C,G,]2 [G,,G,]2 | %5
 [C,G,C]>[C,^F,C] [C,G,C]>[C,F,C] [C,G,C]2 z2 | z2 [D,D]2 .[D,D]2 z2 | D,4 G,4 | B,2 A,2 D,2 F,2 | %9
 z2 _E2 z2 =E2 | B,2 A,2 D,2 A,2 | z2 C2 C2 z2 | C,2 [G,,G,]2 [C,G,]2 [G,,G,]2 | %13
 [C,_B,]>G,, [C,B,]>[C,B,] [F,A,F]>[F,A,F] [^F,C_E]>[F,CE] | [G,CE]4 [G,B,F]4 | [C,C]6 z2 | %16
 [C,C]4 [C,C]4 | [C,C]>[C,C] [C,C]>[C,C] [C,C]4 | [C,C]2 [E,G,]2 [F,G,B,]2 [E,G,C]2 | %19
 [D,G,B,]4 [G,,G,]4 | [G,DF]4 [G,B,F]4 | [G,B,F]>[G,CF] [G,B,F]>[G,CF] [G,B,F]4 | %22
 [G,B,F]2 [G,B,F]2 [G,B,F]2 [G,F]2 | [C,^F,]4 [C,G,]4 | [C,C]4 [C,C]4 | %25
 [C,C]>[C,C] [C,C]>[C,C] [C,C]4 | [C,_B,]2 [C,B,]2 [C,B,]2 [C,C]2 | [F,C]4 [E,^C]4 | %28
 [D,C]2 [D,C]2 [D,A,]2 [D,C]2 | [G,CE]2 [G,CE]2 [A,C_E]2 [G,C=E]2 | [D,C]4 [G,B,]4 | %31
[M:3/4] [C,G,C]6 |] %32
V:3
 x8 | x8 | F6 z2 | z2 C2 [EG]4 | x8 | x8 | z2 G2 Gd c>^F | x8 | x8 | x8 | x8 | x8 | x8 | x8 | x8 | %15
 x8 | x8 | x8 | x8 | x8 | x8 | x8 | x8 | x8 | x8 | x8 | x8 | x8 | x8 | x8 | x8 |[M:3/4] x6 |] %32
V:4
 x8 | x8 | x8 | z2 [C,^F,]2 [C,G,C]4 | x8 | x8 | x8 | x8 | x8 | A,4 G,4 | x8 | G,6 z2 | x8 | x8 | %14
 x8 | x8 | x8 | x8 | x8 | x8 | x8 | x8 | x8 | x8 | x8 | x8 | x8 | x8 | x8 | x8 | x8 |[M:3/4] x6 |] %32

